app/dist/common/images/lancaster-colony.svg

<svg height="18" width="18" xmlns="http://www.w3.org/2000/svg"><path d="m0 0h18v18h-18z" fill="#da7c33"/><g fill="#fff"><path d="m5 8.368v-3.157h.82v3.157c0 1.58 1.436 3.79 3.488 3.79h3.692v.842h-3.692c-1.744 0-4.308-1.628-4.308-4.632z"/><path d="m6.23 8.368c0-1.966 1.438-3.368 3.386-3.368a3.37 3.37 0 0 1 3.384 3.368h-.82c0-1.376-1.28-2.526-2.565-2.526-1.333 0-2.564 1.053-2.564 2.526 0 1.228 1.026 2.527 2.257 2.527h3.692v.842h-3.692c-1.5 0-3.077-1.714-3.077-3.369z"/><path d="m13 10.474h-3.692c-1.01 0-1.846-1.143-1.846-2.106 0-1.196 1.036-2.105 2.153-2.105 1.62 0 2.154 1.369 2.154 2.105h-.82c0-.842-.718-1.263-1.334-1.263-.615 0-1.333.421-1.333 1.263 0 .843.718 1.264 1.026 1.264h3.692z"/></g></svg>

<!-- by TradingView --><svg width="18" height="18" xmlns="http://www.w3.org/2000/svg"><path fill="#DA7C33" d="M0 0h18v18H0z"/><path d="M5 8.368V5.211h.82v3.157c0 1.58 1.436 3.79 3.488 3.79H13V13H9.308C7.564 13 5 11.372 5 8.368z" fill="#fff"/><path d="M6.23 8.368C6.23 6.402 7.668 5 9.616 5A3.37 3.37 0 0113 8.368h-.82c0-1.376-1.28-2.526-2.565-2.526-1.333 0-2.564 1.053-2.564 2.526 0 1.228 1.026 2.527 2.257 2.527H13v.842H9.308c-1.5 0-3.077-1.714-3.077-3.369z" fill="#fff"/><path d="M13 10.474H9.308c-1.01 0-1.846-1.143-1.846-2.106 0-1.196 1.036-2.105 2.153-2.105 1.62 0 2.154 1.369 2.154 2.105h-.82c0-.842-.718-1.263-1.334-1.263-.615 0-1.333.421-1.333 1.263 0 .843.718 1.264 1.026 1.264H13v.842z" fill="#fff"/></svg>
